!!!COM: Haydn, Franz Joseph
!!!OPR: Symphony in D Major
!!!OTL: Affettuoso 
!!!OMV: 3
!!!SCT: H I:96
!!!SCA: Thematisch-bibliographisches Werkevererzeichnis (A. van Hoboken)
!!!YOR: Dover Edition
!!!EED: Frances Bennion
!!!ENC: Frances Bennion
!!!CDT: 1732/3/31/-1809/5/31/
!!!OCY: Österreich
!!!YEC: Copyright (c) 1994, 2000 Center for Computer Assisted Research in the Humanities
!!!YEM: Rights to all derivative editions reserved.
!!!YEM: Refer to licensing agreement for further details.
!!!YEN: United States of America
**kern	**kern	**kern	**kern	**kern	**kern	**kern	**kern	**kern	**kern	**kern	**kern	**kern	**kern	**kern
*k[f#c#]	*k[]	*k[]	*k[f#c#]	*k[f#c#]	*k[f#c#]	*k[f#c#]	*k[f#c#]	*k[f#c#]	*k[f#c#]	*k[f#c#]	*k[f#c#]	*k[]	*k[]	*k[]
*D:	*D:	*D:	*D:	*D:	*D:	*D:	*D:	*D:	*D:	*D:	*D:	*D:	*D:	*D:
*clefF	*clefF	*clefF4	*clefF	*clefC3	*clefF4	*clefF4	*clefF	*clefF	*clefF	*clefF4	*clefF4	*clefF	*clefF	*clefF
*M3/4	*M3/4	*M3/4	*M3/4	*M3/4	*M3/4	*M3/4	*M3/4	*M3/4	*M3/4	*M3/4	*M3/4	*M3/4	*M3/4	*M3/4
*tb16	*tb16	*tb16	*tb16	*tb16	*tb16	*tb16	*tb16	*tb16	*tb16	*tb16	*tb16	*tb16	*tb16	*tb16
=0-	=0-	=0-	=0-	=0-	=0-	=0-	=0-	=0-	=0-	=0-	=0-	=0-	=0-	=0-
2r	2r	2r	2r	2r	2r	2r	2r	2r	2r	2r	2r	2r	2r	2r
4a	4r	4r	4a	4r	4r	4r	4a	4r	4r	4r	4r	4r	4r	4r
=1	=1	=1	=1	=1	=1	=1	=1	=1	=1	=1	=1	=1	=1	=1
4dd	2e	4C	4dd	2d	2D	2D	4dd	2f# 2a	4f#	2D	2D	2cc	2e	2cc
4ff#	.	4r	4ff#	.	.	.	4ff#	.	4a	.	.	.	.	.
4cc#	4g	4GG	4cc#	8e	4A	4A	4cc#	8g	4e	4A	4A	4dd	4g	4g
.	.	.	.	8g	.	.	.	8e	.	.	.	.	.	.
=2	=2	=2	=2	=2	=2	=2	=2	=2	=2	=2	=2	=2	=2	=2
4.dd	4c	4C	4.dd	4f#	4F#	4F#	4.dd	4.d	4.f#	4F#	4F#	4ee	4cc	4cc
.	2r	2r	.	4d	4D	4D	.	.	.	4D	4D	2r	2r	2r
16ee	.	.	16ee	.	.	.	16ee	16e	16g	.	.	.	.	.
16ff#	.	.	16ff#	.	.	.	16ff#	16f#	16a	.	.	.	.	.
16gg	.	.	16gg	4r	4r	4r	16gg	16g	16b	4r	4r	.	.	.
16aa	.	.	16aa	.	.	.	16aa	16a	16cc#	.	.	.	.	.
16bb	.	.	16bb	.	.	.	16bb	16b	16dd	.	.	.	.	.
16ccc#	.	.	16ccc#	.	.	.	16ccc#	16cc#	16ee	.	.	.	.	.
=3	=3	=3	=3	=3	=3	=3	=3	=3	=3	=3	=3	=3	=3	=3
4ddd	4c	4C	4ddd	4d	4D	4D	4ddd	4dd	4ff#	4D	4D	4cc	4c	4c
4bb	4c	4C	4bb	4d	4D	4D	4bb	4gg	4gg	4D	4D	8cc	8c	4c
.	.	.	.	.	.	.	.	.	.	.	.	8cc	8c	.
4gg#	8c	8C	4gg#	4d	4D	4D	4gg#	4ee#	4ee#	4D	4D	8cc	8c	8c
.	8c	8C	.	.	.	.	.	.	.	.	.	8cc	8c	8c
=4	=4	=4	=4	=4	=4	=4	=4	=4	=4	=4	=4	=4	=4	=4
4aa	4c	4C	4aa	4d	4D	4D	4aa	4ff#	4ff#	4D	4D	4cc	4c	4c
4r	2r	2r	4r	2r	2r	2r	2r	4r	2r	2r	2r	2r	2r	2r
4aa	.	.	4a	.	.	.	.	4a	.	.	.	.	.	.
=5	=5	=5	=5	=5	=5	=5	=5	=5	=5	=5	=5	=5	=5	=5
8aa	2.r	2.r	8a	2.E	4r	4r	2.r	8a	2.r	2.r	2.r	[2.g	[2.G	2.r
8cc#	.	.	8c#	.	.	.	.	8c#	.	.	.	.	.	.
4r	.	.	4r	.	4G	4AA	.	4r	.	.	.	.	.	.
8aa	.	.	8a	.	4G	4AA	.	8a	.	.	.	.	.	.
8cc#	.	.	8c#	.	.	.	.	8c#	.	.	.	.	.	.
=6	=6	=6	=6	=6	=6	=6	=6	=6	=6	=6	=6	=6	=6	=6
8aa	2.r	2.r	8a	2.F#	4r	4r	2.r	8a	2.r	2.r	2.r	2.g_	2.G_	2.r
8dd	.	.	8d	.	.	.	.	8d	.	.	.	.	.	.
4r	.	.	4r	.	4F#	4AA	.	4r	.	.	.	.	.	.
8aa	.	.	8a	.	4F#	4AA	.	8a	.	.	.	.	.	.
8dd#	.	.	8d#	.	.	.	.	8d#	.	.	.	.	.	.
=7	=7	=7	=7	=7	=7	=7	=7	=7	=7	=7	=7	=7	=7	=7
8ff#	2.r	2.r	8f#	2.G	2.G	2.AA	2.r	8f#	2.r	2.r	2.r	2.g_	2.G_	2.r
8ee	.	.	8e	.	.	.	.	8e	.	.	.	.	.	.
8ccc	.	.	8cc	.	.	.	.	8cc	.	.	.	.	.	.
8bb	.	.	8b	.	.	.	.	8b	.	.	.	.	.	.
8gg	.	.	8g	.	.	.	.	8g	.	.	.	.	.	.
8ee	.	.	8e	.	.	.	.	8e	.	.	.	.	.	.
=8	=8	=8	=8	=8	=8	=8	=8	=8	=8	=8	=8	=8	=8	=8
4dd	2.r	2.r	4d	4F#	4F#	2AA	2r	4d	2r	2.r	2.r	4g]	4G]	2.r
4cc#	.	.	4c#	4E	4E	.	.	4c#	.	.	.	2r	2r	.
4a	.	.	4a	4r	4r	4r	4a	4r	4a	.	.	.	.	.
=9	=9	=9	=9	=9	=9	=9	=9	=9	=9	=9	=9	=9	=9	=9
4dd	2e	4C	4dd	2d	2D	2D	4dd	2f# 2a	4f#	2D	2D	2cc	2e	2cc
4ff#	.	4r	4ff#	.	.	.	4ff#	.	4a	.	.	.	.	.
4cc#	4g	4GG	4cc#	8e	4A	4A	4cc#	8g	4e	4A	4A	4dd	4g	4g
.	.	.	.	8g	.	.	.	8e	.	.	.	.	.	.
=10	=10	=10	=10	=10	=10	=10	=10	=10	=10	=10	=10	=10	=10	=10
4.dd	4c	4C	4.dd	4f#	4F#	4F#	4.dd	4.d	4.f#	4F#	4F#	4ee	4cc	4cc
.	2r	2r	.	4d	4D	4D	.	.	.	4D	4D	2r	2r	2r
16ee	.	.	16ee	.	.	.	16ee	16e	16g	.	.	.	.	.
16ff#	.	.	16ff#	.	.	.	16ff#	16f#	16a	.	.	.	.	.
16gg	.	.	16gg	4r	4r	4r	16gg	16g	16b	4r	4r	.	.	.
16aa	.	.	16aa	.	.	.	16aa	16a	16cc#	.	.	.	.	.
16bb	.	.	16bb	.	.	.	16bb	16b	16dd	.	.	.	.	.
16ccc#	.	.	16ccc#	.	.	.	16ccc#	16cc#	16ee	.	.	.	.	.
=11	=11	=11	=11	=11	=11	=11	=11	=11	=11	=11	=11	=11	=11	=11
4ddd	4c	4C	4ddd	2f#	4D	4D	4ddd	4dd	2ff#	4D	4D	4cc	4cc	4cc
4bb	4c	4C	4bb	.	4d	4d	4bb	4ff#	.	4d	4d	8cc	8cc	4cc
.	.	.	.	.	.	.	.	.	.	.	.	8cc	8cc	.
4gg#	4c	8C	4gg#	4f	4d	4d	4gg#	4b	4ff	4d	4d	4cc	4cc	4cc
.	.	8C	.	.	.	.	.	.	.	.	.	.	.	.
=12	=12	=12	=12	=12	=12	=12	=12	=12	=12	=12	=12	=12	=12	=12
8aa	2g	4GG	8aa	2e	2c#	2c#	8aa	4a	2ee	2c#	2c#	2.dd	2.g	2dd
8ee	.	.	8ee	.	.	.	8ee	.	.	.	.	.	.	.
8ccc#	.	4r	8ccc#	.	.	.	8ccc#	8ccc#	.	.	.	.	.	.
8aa	.	.	8aa	.	.	.	8aa	8aa	.	.	.	.	.	.
8ee	4g	4GG	8ee	4a	4C#	4C#	8ee	8ee	4cc#	4C#	4C#	.	.	4dd
8cc#	.	.	8cc#	.	.	.	8cc#	8cc#	.	.	.	.	.	.
=13	=13	=13	=13	=13	=13	=13	=13	=13	=13	=13	=13	=13	=13	=13
8b	4cc	4C	8b	2f#	4D	4D	8b	8b	8b	4D	4D	2ee	2cc	4ee
8ff#	.	.	8ff#	.	.	.	8ff#	8ff#	8ff#	.	.	.	.	.
8dd	4cc	4C	8dd	.	4BB	4BB	8dd	8dd	8dd	4BB	4BB	.	.	4ee
8b	.	.	8b	.	.	.	8b	8b	8b	.	.	.	.	.
8g#	4dd	4C	8g#	4d	4E	4E	8g#	8g#	8g#	4E	4E	4dd	4dd	4dd
8b	.	.	8e	.	.	.	8e	8e	8e	.	.	.	.	.
=14	=14	=14	=14	=14	=14	=14	=14	=14	=14	=14	=14	=14	=14	=14
4a	4g	4GG	4a	4c#	4AA	4AA	4a	4a	4a	4AA	4AA	4dd	4g	4dd
4r	2r	2r	4r	2r	4A	4A	4r	2r	2r	4A	4A	2r	2r	2r
4ee	.	.	4ee	.	4r	4r	4ee	.	.	4r	4r	.	.	.
=15	=15	=15	=15	=15	=15	=15	=15	=15	=15	=15	=15	=15	=15	=15
8ee	2.r	2.r	8ee	4r	4r	4r	8ee	4r	2.r	2.r	2.r	2.r	2.r	2.r
8g#	.	.	8g#	.	.	.	8g#	.	.	.	.	.	.	.
4r	.	.	4r	4e	4d	4d	4r	4e	.	.	.	.	.	.
8ee	.	.	8ee	4e	4d	4d	8ee	4e	.	.	.	.	.	.
8g#	.	.	8g#	.	.	.	8g#	.	.	.	.	.	.	.
=16	=16	=16	=16	=16	=16	=16	=16	=16	=16	=16	=16	=16	=16	=16
8ee	2.r	2.r	8ee	4r	4r	4r	8ee	4r	2.r	2.r	2.r	2.r	2.r	2.r
8a	.	.	8a	.	.	.	8a	.	.	.	.	.	.	.
4r	.	.	4r	4e	4c#	4c#	4r	4a	.	.	.	.	.	.
4ee	.	.	4ee	4e	4c	4c	4ee	4a#	.	.	.	.	.	.
=17	=17	=17	=17	=17	=17	=17	=17	=17	=17	=17	=17	=17	=17	=17
4dd#	2.r	2.r	4dd#	4f#	4B	4B	4dd#	4b	2.r	2.r	2.r	2.r	2.r	2.r
4dd	.	.	4dd	4b	4E	4E	4dd	4g#	.	.	.	.	.	.
4cc#	.	.	4cc#	4e	4A	4A	4cc#	4a	.	.	.	.	.	.
=18	=18	=18	=18	=18	=18	=18	=18	=18	=18	=18	=18	=18	=18	=18
4b	2.r	2.r	4b	2f#	2.D	2.D	4b	2.f#	2.r	2.r	2.r	2.r	2.r	2.r
4dd	.	.	4dd	.	.	.	4dd	.	.	.	.	.	.	.
4ff#	.	.	4ff#	8d	.	.	4ff#	.	.	.	.	.	.	.
.	.	.	.	8B	.	.	.	.	.	.	.	.	.	.
=19	=19	=19	=19	=19	=19	=19	=19	=19	=19	=19	=19	=19	=19	=19
2ccc#	4dd	2.r	8e	2A	2E	2E	2aa	2e 2c#	2aa	2.E	2.E	2.dd	2.dd	4dd
.	.	.	8a	.	.	.	.	.	.	.	.	.	.	.
.	4dd	.	8cc#	.	.	.	.	.	.	.	.	.	.	4dd
.	.	.	8ee	.	.	.	.	.	.	.	.	.	.	.
4bb	4dd	.	4b 4gg#	8G#	4EE	4EE	4gg#	4e 4dd	4gg#	.	.	.	.	4dd
.	.	.	.	8B	.	.	.	.	.	.	.	.	.	.
=20	=20	=20	=20	=20	=20	=20	=20	=20	=20	=20	=20	=20	=20	=20
4aa	4g	4GG	4aa 4a	4A	4AA	4AA	4aa	4e 4cc#	4aa	4AA	4AA	4gg	4g	4dd
4r	4r	4r	4r	4r	4r	4r	4r	4r	4r	4r	4r	4r	4r	4r
4a	4g	4r	4a	8c#	8C#	8C#	4a	4A	4r	8C#	8C#	4r	4r	4g
.	.	.	.	8A	8AA	8AA	.	.	.	8AA	8AA	.	.	.
=21	=21	=21	=21	=21	=21	=21	=21	=21	=21	=21	=21	=21	=21	=21
4b	4g	2.r	4b	8d	8D	8D	4b	4B	[2.a	8D	8D	2.r	2.r	4g
.	.	.	.	8A	8AA	8AA	.	.	.	8AA	8AA	.	.	.
4cc#	4g	.	4cc#	8e	8E	8E	4cc#	4c#	.	8E	8E	.	.	4g
.	.	.	.	8A	8AA	8AA	.	.	.	8AA	8AA	.	.	.
4dd	4g	.	4dd	8f#	8F#	8F#	4dd	4d	.	8F#	8F#	.	.	4g
.	.	.	.	8A	8AA	8AA	.	.	.	8AA	8AA	.	.	.
=22	=22	=22	=22	=22	=22	=22	=22	=22	=22	=22	=22	=22	=22	=22
8ee	2g	2GG	8ee	2g	2G	2G	8ee	8e	4a]	2G	2G	2r	2r	2dd
8ff#	.	.	8ff#	.	.	.	8ff#	8d	.	.	.	.	.	.
8gg	.	.	8gg	.	.	.	8gg	8c#	4r	.	.	.	.	.
8cc#	.	.	8cc#	.	.	.	8cc#	8e	.	.	.	.	.	.
4dd	4c	4r	4dd	4f#	4F#	4F#	4dd	8f#	4f#	4F#	4F#	4cc	4c	4cc
.	.	.	.	.	.	.	.	8d	.	.	.	.	.	.
=23	=23	=23	=23	=23	=23	=23	=23	=23	=23	=23	=23	=23	=23	=23
4ee	2.r	2.r	4ee	2.r	2.r	2.r	4ee	8g	4g	2.r	2.r	4cc	4c	2.r
.	.	.	.	.	.	.	.	8d	.	.	.	.	.	.
4ff#	.	.	4ff#	.	.	.	4ff#	8a	4a	.	.	4cc	4c	.
.	.	.	.	.	.	.	.	8d	.	.	.	.	.	.
4gg	.	.	4gg	.	.	.	4gg	8b	4b	.	.	4cc	4c	.
.	.	.	.	.	.	.	.	8d	.	.	.	.	.	.
=24	=24	=24	=24	=24	=24	=24	=24	=24	=24	=24	=24	=24	=24	=24
8aa	2.r	2.r	8aa	2r	2r	2r	8aa	2cc	2cc	2r	2r	4cc	4c	2.r
8bb	.	.	8bb	.	.	.	8bb	.	.	.	.	.	.	.
8ccc	.	.	8ccc	.	.	.	8ccc	.	.	.	.	2r	2r	.
8ff#	.	.	8ff#	.	.	.	8ff#	.	.	.	.	.	.	.
8gg	.	.	8gg	8b	8B	8B	8gg	4b	4b	8B	8B	.	.	.
8aa	.	.	8aa	8a	8A	8A	8aa	.	.	8A	8A	.	.	.
=25	=25	=25	=25	=25	=25	=25	=25	=25	=25	=25	=25	=25	=25	=25
8bb	2.r	2.r	8bb	4g	4G	4G	8bb	8bb	[2.b	4G	4G	2.r	2.r	2.r
8b	.	.	8b	.	.	.	8b	8b	.	.	.	.	.	.
8aa	.	.	8aa	4f#	4F#	4F#	8aa	8aa	.	4F#	4F#	.	.	.
8b	.	.	8b	.	.	.	8b	8b	.	.	.	.	.	.
8gg	.	.	8gg	4e	4E	4E	8gg	8gg	.	4E	4E	.	.	.
8b	.	.	8b	.	.	.	8b	8b	.	.	.	.	.	.
=26	=26	=26	=26	=26	=26	=26	=26	=26	=26	=26	=26	=26	=26	=26
8ff#	2.r	2.r	8ff#	2.B	2D#	2D#	8ff#	8ff#	2.b]	2D#	2D#	2.r	2.r	2.r
8gg	.	.	8gg	.	.	.	8gg	8gg	.	.	.	.	.	.
8aa	.	.	8aa	.	.	.	8aa	8aa	.	.	.	.	.	.
8ff#	.	.	8ff#	.	.	.	8ff#	8ff#	.	.	.	.	.	.
8gg	.	.	8gg	.	4E	4E	8gg	8gg	.	4E	4E	.	.	.
8bb	.	.	8bb	.	.	.	8bb	8bb	.	.	.	.	.	.
=27	=27	=27	=27	=27	=27	=27	=27	=27	=27	=27	=27	=27	=27	=27
8ee	2.r	2.r	8ee	2A	4C#	4C#	8ee	8ee	4a	4C#	4C#	2.r	2.r	2.r
8gg	.	.	8gg	.	.	.	8gg	8gg	.	.	.	.	.	.
8ff#	.	.	8ff#	.	4D	4D	8ff#	8ff#	4aa	4D	4D	.	.	.
8ddd	.	.	8ddd	.	.	.	8aa	8aa	.	.	.	.	.	.
8bb	.	.	8bb	8B	4G	4G	8gg	8gg	8gg	4G	4G	.	.	.
8gg	.	.	8gg	8g	.	.	8ee	8ee	8ee	.	.	.	.	.
=28	=28	=28	=28	=28	=28	=28	=28	=28	=28	=28	=28	=28	=28	=28
4ff#	2.r	2.r	4ff#	4a	2A	2A	4dd	4dd	4dd	2A	2A	2.r	2.r	2.r
4ee	.	.	4ee	2r	.	.	4cc#	4cc#	4cc#	.	.	.	.	.
4a	.	.	4a	.	4r	4r	4a	4a	4r	4r	4r	.	.	.
=29	=29	=29	=29	=29	=29	=29	=29	=29	=29	=29	=29	=29	=29	=29
4dd	2e	4C	4dd	2f#	4F#	4F#	4dd	2f# 2a	4f#	4F#	4F#	2cc	2e	2cc
4ff#	.	4r	4ff#	.	4D	4D	4ff#	.	4a	4D	4D	.	.	.
4cc#	4g	4GG	4cc#	8e	4G	4G	4cc#	8g	4e	4G	4G	4dd	4g	4g
.	.	.	.	8g	.	.	.	8e	.	.	.	.	.	.
=30	=30	=30	=30	=30	=30	=30	=30	=30	=30	=30	=30	=30	=30	=30
4.dd	4c	4C	4.dd	4f#	4F#	4F#	4.dd	4.d	4.f#	4F#	4F#	4ee	4cc	4cc
.	2r	2r	.	4d	4D	4D	.	.	.	4D	4D	2r	2r	2r
16ee	.	.	16ee	.	.	.	16ee	16e	16g	.	.	.	.	.
16ff#	.	.	16ff#	.	.	.	16ff#	16f#	16a	.	.	.	.	.
16gg	.	.	16gg	4r	4r	4r	16gg	16g	16b	4r	4r	.	.	.
16aa	.	.	16aa	.	.	.	16aa	16a	16cc#	.	.	.	.	.
16bb	.	.	16bb	.	.	.	16bb	16b	16dd	.	.	.	.	.
16ccc#	.	.	16ccc#	.	.	.	16ccc#	16cc#	16ee	.	.	.	.	.
=31	=31	=31	=31	=31	=31	=31	=31	=31	=31	=31	=31	=31	=31	=31
4ddd	4c	4C	4ddd	4d	4D	4D	4ddd	4dd	4ff#	4D	4D	4cc	4cc	4c
4bb	4c	4C	4bb	4d	4D	4D	4bb	4gg	4gg	4D	4D	8cc	8cc	4c
.	.	.	.	.	.	.	.	.	.	.	.	8cc	8cc	.
4gg#	8c	8C	4gg#	4d	4D	4D	4gg#	4ee#	4ee#	4D	4D	8cc	8cc	8c
.	8c	8C	.	.	.	.	.	.	.	.	.	8cc	8cc	8c
=32	=32	=32	=32	=32	=32	=32	=32	=32	=32	=32	=32	=32	=32	=32
4aa	4c	4C	4aa	4d	4D	4D	4aa	4ff#	4ff#	4D	4D	4cc	4cc	4c
4r	2r	2r	4r	2r	2r	2r	2r	4r	2r	2r	2r	2r	2r	2r
4aa	.	.	4a	.	.	.	.	4a	.	.	.	.	.	.
=33	=33	=33	=33	=33	=33	=33	=33	=33	=33	=33	=33	=33	=33	=33
8aa	2.r	2.r	8a	4r	4r	4r	2.r	8a	2.r	2.r	2.r	[2.g	[2.G	2.r
8cc#	.	.	8c#	.	.	.	.	8c#	.	.	.	.	.	.
4r	.	.	4r	4G	4G	4AA	.	4r	.	.	.	.	.	.
8aa	.	.	8a	4G	4G	4AA	.	8a	.	.	.	.	.	.
8cc#	.	.	8c#	.	.	.	.	8c#	.	.	.	.	.	.
=34	=34	=34	=34	=34	=34	=34	=34	=34	=34	=34	=34	=34	=34	=34
8aa	2.r	2.r	8a	4r	4r	4r	2.r	8a	2.r	2.r	2.r	2.g_	2.G_	2.r
8dd	.	.	8d	.	.	.	.	8d	.	.	.	.	.	.
4r	.	.	4r	4F#	4F#	4AA	.	4r	.	.	.	.	.	.
8aa	.	.	8a	4F#	4F#	4AA	.	8a	.	.	.	.	.	.
8dd#	.	.	8d#	.	.	.	.	8d#	.	.	.	.	.	.
=35	=35	=35	=35	=35	=35	=35	=35	=35	=35	=35	=35	=35	=35	=35
8ff#	2.r	2.r	8f#	[2.G	[2.G	[2.AA	2.r	8f#	2.r	2.r	2.r	2.g_	2.G_	2.r
8ee	.	.	8e	.	.	.	.	8e	.	.	.	.	.	.
8ccc	.	.	8cc	.	.	.	.	8cc	.	.	.	.	.	.
8bb	.	.	8b	.	.	.	.	8b	.	.	.	.	.	.
8gg	.	.	8g	.	.	.	.	8g	.	.	.	.	.	.
8ee	.	.	8e	.	.	.	.	8e	.	.	.	.	.	.
=36	=36	=36	=36	=36	=36	=36	=36	=36	=36	=36	=36	=36	=36	=36
8dd	2.r	2.r	8d	4G]	4G]	2.AA_	2.r	8d	2.r	2.r	2.r	2.g_	2.G_	2.r
8cc#	.	.	8c#	.	.	.	.	8c#	.	.	.	.	.	.
8bb	.	.	8b	[2F#	[2F#	.	.	8b	.	.	.	.	.	.
8aa	.	.	8a	.	.	.	.	8a	.	.	.	.	.	.
8ff#	.	.	8f#	.	.	.	.	8f#	.	.	.	.	.	.
8dd	.	.	8d	.	.	.	.	8d	.	.	.	.	.	.
=37	=37	=37	=37	=37	=37	=37	=37	=37	=37	=37	=37	=37	=37	=37
8cc#	2.r	2.r	8c#	4F#]	4F#]	2.AA_	2.r	8c#	2.r	2.r	2.r	2.g_	2.G_	2.r
8b	.	.	8B	.	.	.	.	8B	.	.	.	.	.	.
8aa	.	.	8a	[2E	[2E	.	.	8a	.	.	.	.	.	.
8gg	.	.	8g	.	.	.	.	8g	.	.	.	.	.	.
8ee	.	.	8e	.	.	.	.	8e	.	.	.	.	.	.
8cc#	.	.	8c#	.	.	.	.	8c#	.	.	.	.	.	.
=38	=38	=38	=38	=38	=38	=38	=38	=38	=38	=38	=38	=38	=38	=38
8b	2.r	2.r	8B	4E]	4E]	2AA]	2.r	8B	2.r	2.r	2.r	4g]	4G]	2.r
8a	.	.	8A	.	.	.	.	8A	.	.	.	.	.	.
8aa	.	.	8a	4C#	4C#	.	.	8a	.	.	.	2r	2r	.
8gg	.	.	8g	.	.	.	.	8g	.	.	.	.	.	.
8gg	.	.	8g	8D	8D	4D	.	8g	.	.	.	.	.	.
8ff#	.	.	8f#	8A	8A	.	.	8f#	.	.	.	.	.	.
=39	=39	=39	=39	=39	=39	=39	=39	=39	=39	=39	=39	=39	=39	=39
8ff#	2.r	2.r	8f#	8A	8A	4GG	2.r	8f#	2.r	2.r	2.r	2.r	2.r	2.r
8ee	.	.	8e	8G	8G	.	.	8e	.	.	.	.	.	.
8ee	.	.	8e	8G	8G	4AA	.	8e	.	.	.	.	.	.
8dd	.	.	8d	8F#	8F#	.	.	8d	.	.	.	.	.	.
8dd	.	.	8d	8F#	8F#	4AA	.	8d	.	.	.	.	.	.
8cc#	.	.	8c#	8E	8E	.	.	8c#	.	.	.	.	.	.
=40	=40	=40	=40	=40	=40	=40	=40	=40	=40	=40	=40	=40	=40	=40
4dd	4c	4C	4d	4D	4D	4D	2r	4d	2r	2.r	2.r	4cc	4c	4c
4r	8c	8C	4r	2r	2r	2r	.	4r	.	.	.	8cc	8c	8c
.	8c	8C	.	.	.	.	.	.	.	.	.	8cc	8c	8c
4dd	4c	4C	4d	.	.	.	4dd	4d	4dd	.	.	4cc	4c	4c
=41	=41	=41	=41	=41	=41	=41	=41	=41	=41	=41	=41	=41	=41	=41
4gg	4c	4C	4g	2b	2B	2B	4gg	4g	4gg	2B	2B	4cc	4c	4c
4bb	2r	2r	4b	.	.	.	4bb	4b	4bb	.	.	2r	2r	2r
4ff#	.	.	4f#	4a	4A	4A	4ff#	4f#	4ff#	4A	4A	.	.	.
=42	=42	=42	=42	=42	=42	=42	=42	=42	=42	=42	=42	=42	=42	=42
4ee	4c	4C	4e	2g	2G	2G	4ee	4e	4ee	2G	2G	4cc	4c	4c
4bb	8c	8C	4b	.	.	.	4bb	4b	4bb	.	.	8cc	8c	8c
.	8c	8C	.	.	.	.	.	.	.	.	.	8cc	8c	8c
4ff#	4c	4C	4f#	4a	4A	4A	4ff#	4f#	4ff#	4A	4A	4cc	4c	4c
=43	=43	=43	=43	=43	=43	=43	=43	=43	=43	=43	=43	=43	=43	=43
4gg	4c	4C	4g	2b	2B	2B	4gg	4g	4gg	2B	2B	4cc	4c	4c
4bb	2r	2r	4b	.	.	.	4bb	4b	4bb	.	.	2r	2r	2r
4ff#	.	.	4f#	4a	4A	4A	4ff#	4f#	4ff#	4A	4A	.	.	.
=44	=44	=44	=44	=44	=44	=44	=44	=44	=44	=44	=44	=44	=44	=44
4ee	4c	4C	4e	2g	2G	2G	4ee	4e	4ee	2G	2G	4cc	4c	4c
4bb	8c	8C	4b	.	.	.	4bb	4b	4bb	.	.	8cc	8c	8c
.	8c	8C	.	.	.	.	.	.	.	.	.	8cc	8c	8c
4ff#	4c	4C	4f#	4a	4A	4A	4ff#	4f#	4ff#	4A	4A	4cc	4c	4c
=45	=45	=45	=45	=45	=45	=45	=45	=45	=45	=45	=45	=45	=45	=45
4gg	2c	2C	4g	2b	2B	2B	2gg	4g	4gg	2B	2B	2cc	2c	2c
4bb	.	.	4b	.	.	.	.	4b	4bb	.	.	.	.	.
8aa	4g	4GG	8a	4cc#	4c#	4c#	8ff#	8a	8aa	4c#	4c#	4dd	4g	4g
8gg	.	.	8g	.	.	.	8ee	8g	8gg	.	.	.	.	.
=46	=46	=46	=46	=46	=46	=46	=46	=46	=46	=46	=46	=46	=46	=46
4ff#	4cc	4C	4f#	4dd	4d	4d	4dd	4f#	4ff#	4d	4d	4ee	4cc	4cc
2r	2r	2r	2r	2r	2r	2r	2r	2r	2r	2r	2r	2r	2r	2r
=47	=47	=47	=47	=47	=47	=47	=47	=47	=47	=47	=47	=47	=47	=47
4r	[2.G	2.r	4r	4r	4r	4r	2.r	4r	4r	4r	2.r	4r	4r	[2.G
4cc#	.	.	4cc# 4e	4A	4G	4G	.	4cc# 4e	4ee	4G	.	4dd	4g	.
4cc#	.	.	4cc# 4e	4A	4G	4G	.	4e 4cc#	4ee	4G	.	4dd	4g	.
=48	=48	=48	=48	=48	=48	=48	=48	=48	=48	=48	=48	=48	=48	=48
4r	2G]	2.r	4r	4r	4r	4r	2.r	4r	4r	4r	2.r	4ee	4cc	2G]
4dd	.	.	4dd	4A	4F#	4F#	.	4dd	4dd	4F#	.	2r	2r	.
4aa	4r	.	4dd#	4f	4F	4F	.	4dd#	4dd#	4F	.	.	.	4r
=49	=49	=49	=49	=49	=49	=49	=49	=49	=49	=49	=49	=49	=49	=49
4gg#	2.r	2.r	4ee	2e	4E	4E	2.r	4ee	4ee	4E	2.r	2.r	2.r	2.r
4gg	.	.	4cc#	.	4A	4A	.	4cc#	4cc#	4A	.	.	.	.
4ff#	.	.	4dd	4d	4D	4D	.	4dd	4dd	4D	.	.	.	.
=50	=50	=50	=50	=50	=50	=50	=50	=50	=50	=50	=50	=50	=50	=50
4ee	2.r	2.r	2.b	2.d	2.G	2.G	2.r	2.b	2.b	2.G	2.r	2.r	2.r	2.r
4gg	.	.	.	.	.	.	.	.	.	.	.	.	.	.
4bb	.	.	.	.	.	.	.	.	.	.	.	.	.	.
=51	=51	=51	=51	=51	=51	=51	=51	=51	=51	=51	=51	=51	=51	=51
2ff#	4cc	4GG	2a 2f#	2d	2A	2A	8a	2a 2f#	4f#	2A	2A	2ee	2cc	4ee
.	.	.	.	.	.	.	8dd	.	.	.	.	.	.	.
.	4cc	8GG	.	.	.	.	8ff#	.	4r	.	.	.	.	4ee
.	.	8GG	.	.	.	.	8aa	.	.	.	.	.	.	.
4ccc#	4dd	4GG	4g 4A	4A 4e	4AA	4AA	4gg	4g 4A	4ee	4AA	4AA	4dd	4g	4g
=52	=52	=52	=52	=52	=52	=52	=52	=52	=52	=52	=52	=52	=52	=52
4ddd	4e	4C	4f# 4A	4f# 4A	4D	4D	4ff#	4f# 4A	4ff#	4D	4D	4cc	4e	4cc
4r	4r	4r	4r	4r	4r	4r	4r	4r	4r	4r	4r	4r	4r	4r
4r	4r	4r	4r	4r	4r	4r	4r	4r	4r	4r	4r	4r	4r	4r
=53	=53	=53	=53	=53	=53	=53	=53	=53	=53	=53	=53	=53	=53	=53
2.r	2.r	2.r	4r	4r	4D	4D	2.r	4r	2.r	2.r	2.r	2.r	2.r	2.r
.	.	.	4f#	4d	2r	2r	.	4A	.	.	.	.	.	.
.	.	.	4f#	4d	.	.	.	4A	.	.	.	.	.	.
=54	=54	=54	=54	=54	=54	=54	=54	=54	=54	=54	=54	=54	=54	=54
2.r	2.r	2.r	4r	4r	4D	4D	2.r	4r	2.r	2.r	2.r	2.r	2.r	2.r
.	.	.	4f#	4d	2r	2r	.	4A	.	.	.	.	.	.
.	.	.	4f#	4d	.	.	.	4A	.	.	.	.	.	.
=55	=55	=55	=55	=55	=55	=55	=55	=55	=55	=55	=55	=55	=55	=55
2.r	2.r	2.r	4r	4r	4D	4D	2.r	4r	2.r	2.r	2.r	2.r	2.r	2.r
.	.	.	4g	4e	2r	2r	.	4c#	.	.	.	.	.	.
.	.	.	4g	4e	.	.	.	4c#	.	.	.	.	.	.
=56	=56	=56	=56	=56	=56	=56	=56	=56	=56	=56	=56	=56	=56	=56
2.r	2.r	2.r	4r	4r	4D	4D	2.r	4r	2.r	2.r	2.r	2.r	2.r	2.r
.	.	.	4f#	4d	2r	2r	.	4A	.	.	.	.	.	.
.	.	.	4f#	4d	.	.	.	4A	.	.	.	.	.	.
=57	=57	=57	=57	=57	=57	=57	=57	=57	=57	=57	=57	=57	=57	=57
2.r	2.r	2.r	4r	4r	4C#	4C#	2.r	4r	2.r	2.r	2.r	2.r	2.r	2.r
.	.	.	4e	4c#	2r	2r	.	4A	.	.	.	.	.	.
.	.	.	4e	4c#	.	.	.	4A	.	.	.	.	.	.
=58	=58	=58	=58	=58	=58	=58	=58	=58	=58	=58	=58	=58	=58	=58
2.r	2.r	2.r	4r	4r	4D	4D	2.r	4r	2.r	2.r	2.r	2.r	2.r	2.r
.	.	.	4f#	4d	2r	2r	.	4A	.	.	.	.	.	.
.	.	.	4f#	4d	.	.	.	4A	.	.	.	.	.	.
=59	=59	=59	=59	=59	=59	=59	=59	=59	=59	=59	=59	=59	=59	=59
2.r	2.r	2.r	4r	4r	4E	4E	2.r	4r	2.r	2.r	2.r	2.r	2.r	2.r
.	.	.	4g#	4B	4E	4E	.	4d	.	.	.	.	.	.
.	.	.	4g#	4B	4E	4E	.	4d	.	.	.	.	.	.
=60	=60	=60	=60	=60	=60	=60	=60	=60	=60	=60	=60	=60	=60	=60
2r	2r	2r	4a	4A	4AA	4AA	2r	4c#	2r	2r	2r	2r	2r	2r
.	.	.	4r	4r	4A	4A	.	4r	.	.	.	.	.	.
4r	4r	4r	4a	4r	4r	4r	4r	4r	4r	4A	4r	4r	4r	4r
=61	=61	=61	=61	=61	=61	=61	=61	=61	=61	=61	=61	=61	=61	=61
2.r	2.r	2.r	8g#	[2.B	2BB	2BB	2.r	2d#	2.r	8G#	2.r	2.r	2.r	2.r
.	.	.	8a	.	.	.	.	.	.	8A	.	.	.	.
.	.	.	8ff#	.	.	.	.	.	.	8f#	.	.	.	.
.	.	.	8cc	.	.	.	.	.	.	8c	.	.	.	.
.	.	.	8b	.	4D#	4D#	.	4f#	.	8B	.	.	.	.
.	.	.	8a	.	.	.	.	.	.	8A	.	.	.	.
=62	=62	=62	=62	=62	=62	=62	=62	=62	=62	=62	=62	=62	=62	=62
2.r	2.r	2.r	8a	4B]	4E	4E	2.r	4B	2.r	8A	2.r	2.r	2.r	2.r
.	.	.	8f#	.	.	.	.	.	.	8F#	.	.	.	.
.	.	.	8g	2r	2r	2r	.	2r	.	8G	.	.	.	.
.	.	.	8e	.	.	.	.	.	.	8E	.	.	.	.
.	.	.	8b	.	.	.	.	.	.	8B	.	.	.	.
.	.	.	8g	.	.	.	.	.	.	8G	.	.	.	.
=63	=63	=63	=63	=63	=63	=63	=63	=63	=63	=63	=63	=63	=63	=63
2.r	2.r	2.r	8ee	4G	4G	4G	2.r	4B	2.r	8e	2.r	2.r	2.r	2.r
.	.	.	8b	.	.	.	.	.	.	8B	.	.	.	.
.	.	.	8gg	4E	4E	4E	.	8b	.	8g	.	.	.	.
.	.	.	8ff#	.	.	.	.	8a	.	8f#	.	.	.	.
.	.	.	8ee	4G	4G	4G	.	8g	.	8e	.	.	.	.
.	.	.	8dd	.	.	.	.	8f#	.	8d	.	.	.	.
=64	=64	=64	=64	=64	=64	=64	=64	=64	=64	=64	=64	=64	=64	=64
2r	2r	2r	4dd	2A	2A	2A	2r	4f#	2r	4d	2r	2.r	2.r	2r
.	.	.	4cc#	.	.	.	.	4e	.	4c#	.	.	.	.
4aa	4G	4GG	8a	8A	8AA	8AA	4aa	8a	4aa	8AA	8AA	.	.	4g
.	.	.	8aa	8a	8A	8A	.	8aa	.	8A	8A	.	.	.
=65	=65	=65	=65	=65	=65	=65	=65	=65	=65	=65	=65	=65	=65	=65
8bb-	4c	4C	8bb-	8b-	8B-	8B-	8bb-	8bb-	8bb-	8B-	8B-	2.r	2.r	4cc
8aa	.	.	8aa	8a	8A	8A	8aa	8aa	8aa	8A	8A	.	.	.
8bb-	4r	4r	8bb-	8b-	8B-	8B-	8bb-	8bb-	8bb-	8B-	8B-	.	.	4r
8gg#	.	.	8gg#	8g#	8G#	8G#	8gg#	8gg#	8gg#	8G#	8G#	.	.	.
8aa	4G	4GG	8aa	8a	8A	8A	8aa	8aa	8aa	8A	8A	.	.	4g
8ee	.	.	8ee	8e	8E	8E	8ee	8ee	8ee	8E	8E	.	.	.
=66	=66	=66	=66	=66	=66	=66	=66	=66	=66	=66	=66	=66	=66	=66
8ff	4c	4C	8ff	8f	8F	8F	8ff	8ff	8ff	8F	8F	2.r	2.r	4cc
8ee	.	.	8ee	8e	8E	8E	8ee	8ee	8ee	8E	8E	.	.	.
8ff	4r	4r	8ff	8f	8F	8F	8ff	8ff	8ff	8F	8F	.	.	4r
8cc#	.	.	8cc#	8c#	8C#	8C#	8cc#	8cc#	8cc#	8C#	8C#	.	.	.
8dd	4G	4GG	8dd	8d	8D	8D	8dd	8dd	8dd	8D	8D	.	.	4g
8a	.	.	8a	8A	8AA	8AA	8a	8a	8a	8AA	8AA	.	.	.
=67	=67	=67	=67	=67	=67	=67	=67	=67	=67	=67	=67	=67	=67	=67
4b-	4c	4C	4b-	4B-	4BB-	4BB-	4b-	4b-	4b-	4BB-	4BB-	2.r	2.r	4c
4ddd	4c	4C	4ddd	4dd	4d	4d	4ddd	4ddd	4ddd	4d	4d	.	.	4c
4gg#	4c	4C	4G#	4G#	4GG#	4GG#	4gg#	4G#	4gg#	4GG#	4GG#	.	.	4c
=68	=68	=68	=68	=68	=68	=68	=68	=68	=68	=68	=68	=68	=68	=68
4aa	4G	4GG	4A	4A	4AA	4AA	4aa	4A	4aa	4AA	4AA	2.r	2.r	4g
4a	2r	2r	4cc# 4aa	4a	4A	4A	4a	4aa 4cc#	4a	4A	4A	.	.	4r
4r	.	.	4r	4r	4r	4r	4r	4r	4r	4r	4r	.	.	4g
=69	=69	=69	=69	=69	=69	=69	=69	=69	=69	=69	=69	=69	=69	=69
2.r	2.r	2.r	4r	4r	4D	4D	2.r	4r	2.r	2.r	2.r	4r	4r	2cc
.	.	.	4f#	4d	2r	2r	.	4A	.	.	.	4ee	4cc	.
.	.	.	4f#	4d	.	.	.	4A	.	.	.	4ee	4cc	8g
.	.	.	.	.	.	.	.	.	.	.	.	.	.	8e
=70	=70	=70	=70	=70	=70	=70	=70	=70	=70	=70	=70	=70	=70	=70
2.r	2.r	2.r	4r	4r	4D	4D	2.r	4r	2.r	2.r	2.r	4r	4r	2c
.	.	.	4f#	4d	2r	2r	.	4A	.	.	.	4ee	4cc	.
.	.	.	4f#	4d	.	.	.	4A	.	.	.	4ee	4cc	4r
=71	=71	=71	=71	=71	=71	=71	=71	=71	=71	=71	=71	=71	=71	=71
2.r	2.r	2.r	4r	4r	4D	4D	2.r	4r	2.r	2.r	2.r	4r	4r	2.r
.	.	.	4g	4e	2r	2r	.	4c#	.	.	.	4dd	4g	.
.	.	.	4g	4e	.	.	.	4c#	.	.	.	4dd	4g	.
=72	=72	=72	=72	=72	=72	=72	=72	=72	=72	=72	=72	=72	=72	=72
2.r	2.r	2.r	4r	4r	4D	4D	2.r	4r	2.r	2.r	2.r	4r	4r	2.r
.	.	.	4f#	4A	2r	2r	.	4d	.	.	.	4ee	4cc	.
.	.	.	4f#	4A	.	.	.	4d	.	.	.	4ee	4cc	.
=73	=73	=73	=73	=73	=73	=73	=73	=73	=73	=73	=73	=73	=73	=73
2.r	2.r	2.r	4r	4r	4c#	4c#	2.r	4r	2.r	2.r	2.r	4r	4r	2.r
.	.	.	4e	4c#	2r	2r	.	4A	.	.	.	4dd	4g	.
.	.	.	4e	4c#	.	.	.	4A	.	.	.	4dd	4g	.
=74	=74	=74	=74	=74	=74	=74	=74	=74	=74	=74	=74	=74	=74	=74
2.r	2.r	2.r	4r	4r	4c	4c	2.r	4r	2.r	2.r	2.r	4r	4r	2.r
.	.	.	4f#	4A	2r	2r	.	4d	.	.	.	4ee	4cc	.
.	.	.	4f#	4A	.	.	.	4d	.	.	.	4ee	4cc	.
=75	=75	=75	=75	=75	=75	=75	=75	=75	=75	=75	=75	=75	=75	=75
2.r	2.r	2.r	4r	4r	4B	4B	2.r	4r	2.r	2.r	2.r	4r	4r	2.r
.	.	.	4g	4G	4r	4r	.	4d	.	.	.	4cc	4c	.
.	.	.	4g	4G	4B	4B	.	4d	.	.	.	4cc	4c	.
=76	=76	=76	=76	=76	=76	=76	=76	=76	=76	=76	=76	=76	=76	=76
2.r	2.r	2.r	4g	4G	4B	4B	2.r	4d	2.r	2.r	2.r	4cc	4c	2.r
.	.	.	2r	2r	2r	2r	.	2r	.	.	.	2r	2r	.
=77	=77	=77	=77	=77	=77	=77	=77	=77	=77	=77	=77	=77	=77	=77
2.r	2.r	2.r	2.r	2.r	2.r	2.r	2.r	2.r	2.r	2.r	2.r	2.r	2.r	2.r
=78	=78	=78	=78	=78	=78	=78	=78	=78	=78	=78	=78	=78	=78	=78
2.r	2.r	2.r	2b	2.G	2.G	2.G	2.r	2d	2.r	2.r	2.r	2.r	2.r	2.r
.	.	.	8b	.	.	.	.	4e	.	.	.	.	.	.
.	.	.	8g	.	.	.	.	.	.	.	.	.	.	.
=79	=79	=79	=79	=79	=79	=79	=79	=79	=79	=79	=79	=79	=79	=79
2.r	2.r	2.r	2f#	4A	4A	4A	2.r	4f#	2.r	2.r	2.r	2.r	2.r	2.r
.	.	.	.	4A	4AA	4AA	.	4d	.	.	.	.	.	.
.	.	.	8a	4A	4AA	4AA	.	4c#	.	.	.	.	.	.
.	.	.	8g	.	.	.	.	.	.	.	.	.	.	.
=80	=80	=80	=80	=80	=80	=80	=80	=80	=80	=80	=80	=80	=80	=80
2.r	2.r	2.r	4f#	4d	4D	4D	2.r	4d	2.r	2.r	2.r	4r	4r	2.r
.	.	.	4f#	4d	2r	2r	.	4A	.	.	.	4ee	4cc	.
.	.	.	4f#	4d	.	.	.	4A	.	.	.	4ee	4cc	.
=81	=81	=81	=81	=81	=81	=81	=81	=81	=81	=81	=81	=81	=81	=81
2.r	[2.G	4C	4r	4r	4D	4D	2.r	4r	2.r	2.r	2.r	4r	4r	[2.g
.	.	2r	4g 4A	4D	2r	2r	.	4e 4c#	.	.	.	4dd	4g	.
.	.	.	4g 4A	4D	.	.	.	4e 4c#	.	.	.	4dd	4g	.
=82	=82	=82	=82	=82	=82	=82	=82	=82	=82	=82	=82	=82	=82	=82
2.r	2.G_	4C	4r	4r	4D	4D	2.r	4r	2.r	2.r	2.r	4r	4r	2.g_
.	.	2r	4f# 4A	4D	2r	2r	.	4d	.	.	.	4ee	4cc	.
.	.	.	4f# 4A	4D	.	.	.	4d	.	.	.	4ee	4cc	.
=83	=83	=83	=83	=83	=83	=83	=83	=83	=83	=83	=83	=83	=83	=83
2.r	2.G]	4C	4r	4r	4D	4D	2.r	4r	2.r	2.r	2.r	4r	4r	2.g]
.	.	2r	4g 4A	4D	2r	2r	.	4e 4c#	.	.	.	4dd	4g	.
.	.	.	4A 4g	4D	.	.	.	4e 4c#	.	.	.	4dd	4g	.
=84	=84	=84	=84	=84	=84	=84	=84	=84	=84	=84	=84	=84	=84	=84
2.r	4c	4C	4f# 4A	4D	4D	4D	2.r	4d	2.r	2.r	2.r	4cc	4e	4e
.	2r	2r	2r	2r	2r	2r	.	2r	.	.	.	2r	2r	2r
==	==	==	==	==	==	==	==	==	==	==	==	==	==	==
*-	*-	*-	*-	*-	*-	*-	*-	*-	*-	*-	*-	*-	*-	*-
!!!RWG1: This file contains only pitch and duration data.
!!!RWG2: Transposing instruments are not transposed.
!!!RWG3: Spines may have incompatible meters.
!!!RWG4: Durations of rests and tied notes may be interpreted.
!!!RWG: Key is interpreted using the Humdrum key tool.
!!!OPT: The Miracle
!!!AFT: stage1
!!!END: 1997/04/15
!!format changes:
!!content changes:
!!public access: complete
!!!KEY: 1673106134
!!!EMD: Converted from MuseData to Humdrum Dec 16, 2000, by Andreas Kornstaedt using muse2kern.
